X: 1
T:The Bonnie Lad -- Reel
M:2/4
L:1/16
R:reel
B:Ryan's Mammoth Collection
Z:Contributed by Ray Davies  ray:davies99.freeserve.co.uk
K:A
u(ed)|cBAa ((3fga).e.c|dfec B2(Bd)|cBAa ((3fga).e.c|dfec A2(Ad)|
cBAa ((3fga).e.c|dfec B2(Bd)|(ce)fg agbg|afec dAA|]
ud|((3cBA).e.A fAeA|((3cBA).e.c B2Bd|((3cBA).e.A fAeA|(df)ed cAAd|
((3cBA).e.A fAec|dfec B2(Bd)|cefg agbg|afec A2 |]
